services/drupal/web/themes/epa_theme/images/_sprite-source-files/twitter-square.svg

<svg viewBox="0 0 448 512" xmlns="http://www.w3.org/2000/svg"><path d="m64 32c-35.3 0-64 28.7-64 64v320c0 35.3 28.7 64 64 64h320c35.3 0 64-28.7 64-64v-320c0-35.3-28.7-64-64-64zm297.1 84-103.8 118.6 122.1 161.4h-95.6l-74.8-97.9-85.7 97.9h-47.5l111-126.9-117.1-153.1h98l67.7 89.5 78.2-89.5zm-37.8 251.6-169.9-224.7h-28.3l171.8 224.7h26.3z"/></svg>

<svg xmlns="http://www.w3.org/2000/svg" viewBox="0 0 448 512"><!--! Font Awesome Free 6.4.2 by @fontawesome - https://fontawesome.com License - https://fontawesome.com/license/free (Icons: CC BY 4.0, Fonts: SIL OFL 1.1, Code: MIT License) Copyright 2023 Fonticons, Inc. --><path d="M64 32C28.7 32 0 60.7 0 96V416c0 35.3 28.7 64 64 64H384c35.3 0 64-28.7 64-64V96c0-35.3-28.7-64-64-64H64zm297.1 84L257.3 234.6 379.4 396H283.8L209 298.1 123.3 396H75.8l111-126.9L69.7 116h98l67.7 89.5L313.6 116h47.5zM323.3 367.6L153.4 142.9H125.1L296.9 367.6h26.3z"/></svg>
